X:235
T:Jeanette & Jeannot Quadrilles No.2. Le4.235
T:Jingle Bells,aka. Le4.235
M:2/4
L:1/8
Q:2/4=60
B:L.Leadley MS#4 c1850
Z:Village Music Project 2016 Steve Mansfield
K:G
(3g/a/g/ | gfd{f}e | (d2 B)(3g/a/g/ | fed{f}e | (d2 B)d/{g}a/ |
bb/b/ ba | g/g/^g/g/ a/a/=g/g/ | f/a/g/f/ e/g/f/e/ | dz [Ddd'] ||
g/a/ | b>bbb | b2 b>c' | d'bga | b2 c'>d' |
c'c'c'>c' | c'bb>b | baa^g | a2 ^ga |
b>bbb | b2 b>c' | d'bga | b2 bd' |
d'c'ba | g>f ga | b2 b>a | g2 z ||
(3g/a/g/ | fed_e | (d2 B)(3g/a/g/ | fed_e | (d2 B)d/g/ |
b/b/a/a/ g/g/^g/g/ | a/a/f/f/ g/g/e/e/ | d/d/g/g/ g/g/f/f/ | gz [Ddd'] H ||
f/g/ | a>^ga>b | a2 f>g | a>^g a>b | a2 d'>d' |
d'fff | fe b>b | b>a g>e | d(e/f/ g/a/b/c'/) |
b>bbb | b2 b>c' | d'bgb | b2 bd' |
d'c'ba | c'bag | gf b>a | g2 z !D.C>! |]

